!!!COM: Mikołaj z Radomia
!!!CDT: fl. XV c.
!!!ODT: XV c.
!!!OTL: Magnificat
!!!TXO: Latin
!!!voices: 3
!!!pag:
!!!EFL:
!!!YEM: Creative Commons CC/BY/NC/SA 4.0
!!!ENC: Marcin Konik
!!!END: 2014-11-01
!!!EED: Marcin Konik
!!!EEV:
!!!ONB: Encoded in vim by Marcin Konik
!!!CharacterEncoding: utf-8
!!!RDF**kern: l=long note in original notation
!!!RDF**kern: i=editorial accidental
!!!RDF**kern: > = above
!!!RDF**kern < = below
!!muse2ps: z14jc180F
!!title: @{CDT}, @{OTL}, ed. @{ENC}
**kern	**kern	**kern
*part3	*part2	*part1
*staff3	*staff2	*staff1
*clefF4	*clefGv2	*clefG2
*k[]	*k[]	*k[]
*M3/2	*M3/2	*M3/2
=1-	=1-	=1-
2A	2D	2f
2B-	2G	2g
2A	2F	2a
=2	=2	=2
2F	2A	2a
1D	1d	1a
=3	=3	=3
4F	2A	2a
2A	.	.
.	2F	2.cc
4F	.	.
2A	2A	.
.	.	4b
=4	=4	=4
2F	2r	2a
2D	2d	2a
[2E	[2c	[2g
=5	=5	=5
4E]	4c]	4g]
4D	4d	4f
2D	2d	2f
2r	2r	2r
=6	=6	=6
2E	2c	2g
1F	1c	1a
=7	=7	=7
2G	2d	2g
1B-	1d	1g
=8	=8	=8
2A	2c	2f
2.G	2.B	2.e
4F	4A	4d
=9	=9	=9
4E	4B	2g
2F	2A	.
.	.	4f
4G	4G	4d
2A	4F	4f
.	[4D	4e
=10	=10	=10
2G	4D]	4d
.	4E	4e
4F	4A	4d
4D	4F	4d
2E	2G	4c#
.	.	4B
=11	=11	=11
[1.D	[1.A	[1.d
=12	=12	=12
1.D]	1.A]	1.d]
=13	=13	=13
2A	2c	2f
2B-	2d	2g
2A	2e	2a
=14	=14	=14
2c	2e	2a
1c	1e	1a
=15	=15	=15
2A	2e	2a
2r	2r	2r
2r	2r	2r
=16	=16	=16
4c	4e	4a
4d	4f	4b
2e	2.g	2.cc
2c	.	.
.	4e	4a
=17	=17	=17
4d	4f	4b
4e	4g	4cc
2f	2a	2dd
4e	4g	4cc
[4e	[4g	[4cc
=18	=18	=18
4e]	4g]	4cc]
4d	4f	4b-
2c	2.e	2.a
2A	.	.
.	4c	4f
=19	=19	=19
4B-	4d	4g
4d	4f	4b-
2c	4e	4a
.	2d	2g
2B-	.	.
.	4c	4f
=20	=20	=20
2A	2e	2a
2r	2r	2r
2A	2e	2a
=21	=21	=21
2c	2e	2a
2.e	2.g	2.cc
4d	4f	4b-
=22	=22	=22
4c	2.e	2.a
2A	.	.
4c	4e	4a
2B-	4d	4g
.	4c	4f
=23	=23	=23
1A	1e	1a
2A	2e	2a
=24	=24	=24
2c	2e	2a
2.B-	2.d	2.g
4A	4c	4f
=25	=25	=25
2A	2c	2f
2r	2r	2r
2r	2r	2r
=26	=26	=26
2B	2d	2g
1c	1e	1a
=27	=27	=27
1.G	1.d	1.g
=28	=28	=28
2A	2c	2f
2.G	2.B	2.e
4F	4A	4d
=29	=29	=29
4D	2.A	2.d
2F	.	.
4G	4A	4d
2E	4G#	4c#
.	4F#	4B
=30	=30	=30
[1.D	[1.A	[1.d
=31	=31	=31
1.D]	1.A]	1.d]
=32	=32	=32
2d	[1.D	2.a
2A	.	.
.	.	4g
2B-	.	4g
.	.	4f
=33	=33	=33
2A	2D]	2a
2.B	1E	4g
.	.	4e
.	.	4g
4c	.	4f
=34	=34	=34
[1.d	1.D	2.d
.	.	4e
.	.	4f
.	.	4g
=35	=35	=35
1.d]	4r	4a
.	1G	2b
.	.	.
.	.	4a
.	.	4dd
.	4G	4cc
=36	=36	=36
2d	2D	4a
.	.	4b
4c	4A	4a
4A	4F	4a
2B	2E	4g#
.	.	4f#
=37	=37	=37
2A	2e	2a
2r	2r	2r
2r	2r	2r
=38	=38	=38
2D	2d	2a
4D	4A	4a
4D	4A	4a
2D	2A	2a
=39	=39	=39
1D	1d	1f
2E	2c	2g
=40	=40	=40
2F	4A	2f
.	1A	.
1F	.	1d
.	4A	.
=41	=41	=41
1A	1D	2.f
.	.	4g
2c	2r	4a
.	.	4b
=42	=42	=42
2e	2A	2cc
4d	4B	4b
2d	2B	2b
4c	4c	4a
=43	=43	=43
2A	2e	2a
2.B-	2.d	4g
.	.	2g
4c	4c	4a
=44	=44	=44
4d	4B	4dd
2c	2e	4cc
.	.	4a
4c	4e	4b
2B	2d	4g#
.	.	4f#
=45	=45	=45
2A	2e	2a
2r	2r	2r
2r	2r	2r
=46	=46	=46
1D	2d	1a
.	2A	.
2D	2d	2a
=47	=47	=47
2A	2c	2.a
2.c	2.e	.
.	.	4g
.	.	4g
4B-	4d	4f
=48	=48	=48
2A	2e	2a
2D	2d	2f
2F	4c	2d
.	4A	.
=49	=49	=49
2E	4B	2g
.	2B	.
2G	.	4f
.	4G	2e
2G	4E	.
.	4E	4d
=50	=50	=50
1F	2D	2.d
.	4A	.
.	2A	4d
2E	.	4c#
.	4G#	4B
=51	=51	=51
2D	2A	2d
2r	2r	2r
2r	2r	2r
=52	=52	=52
4F	1D	4f
2A	.	2a
4c	.	4a
2B-	2d	4g
.	.	4f
=53	=53	=53
1A	2e	1a
.	2c	.
2F	4r	2a
.	[4d	.
=54	=54	=54
2D	4d]	2a
.	4d	.
2E	4c	2g
.	4B	.
2D	4c	2f
.	4A	.
=55	=55	=55
2E	2B	2g
2.F	2.c	2.a
4E	4e	4g
=56	=56	=56
2G	1d	1g
1B-	.	.
.	2d	2g
=57	=57	=57
2A	2c	1f
1G	1B	.
.	.	2e
=58	=58	=58
2F	2A	1d
1E	1G#	.
.	.	2c#
=59	=59	=59
[1.D	[1.A	[1.d
=60	=60	=60
1.D]	1.A]	1.d]
=61	=61	=61
2F	2c	2f
2B-	2d	2g
2A	[2c	2a
=62	=62	=62
4r	4c]	2a
2c	4A	.
.	4F	1a
2A	4D	.
.	4A	.
4F	[4d	.
=63	=63	=63
4D	4d]	2a
2d	4A	.
.	4F	1a
4A	2D	.
2d	.	.
.	4F	.
=64	=64	=64
4A	4A	1a
2A	2c	.
4G	4c	.
2D	2d	2a
=65	=65	=65
1.r	1.r	1.r
=66	=66	=66
2.A	4A	2a
.	2F	.
.	.	2cc
2F	4A	.
.	2c	2a
4A	.	.
=67	=67	=67
2c	4r	1a
.	4A	.
4d	2D	.
2d	.	.
.	2E	2g
4e	.	.
=68	=68	=68
4c	2A	1.g
2A	.	.
.	4c	.
4c	2e	.
2B-	.	.
.	4d	.
=69	=69	=69
2A	2e	2a
2r	2r	2r
2r	2r	2r
=70	=70	=70
2D	4d	2a
.	2A	.
4F	.	2a
2F	4A	.
.	2D	2a
4A	.	.
=71	=71	=71
1B-	1G	1g
2A	2c	2f
=72	=72	=72
2.G	4B	1g
.	2B	.
2E	4c	.
.	2d	2a
4D	.	.
=73	=73	=73
2.E	4e	1.g
.	2B	.
2G	4B	.
.	2d	.
4B-	.	.
=74	=74	=74
1A	1c	2f
.	.	1e
2G	2B	.
=75	=75	=75
4F	2A	1d
2D	.	.
.	4F	.
4F	2A	.
2E	.	2c#
.	4G#	.
=76	=76	=76
[1.D	[1.A	[1.d
=77	=77	=77
1.D]	1.A]	1.d]
=78	=78	=78
1.A	1.c	1.f
=79	=79	=79
1.B-	1.d	1.g
=80	=80	=80
1.A	1.c	1.a
=81	=81	=81
2c	2A	2a
1c	1A	1a
=82	=82	=82
1.c	1.F	1.a
=83	=83	=83
2A	2D	2a
1A	1D	1a
=84	=84	=84
1.F	1.A	1.a
=85	=85	=85
1.D	1.d	1.a
=86	=86	=86
1.r	1.r	1.r
=87	=87	=87
2D	2d	2a
2D	2A	2a
2F	2d	2a
=88	=88	=88
2F	2d	2a
1A	1e	1a
=89	=89	=89
2.c	4c	4a
.	2A	4b
.	.	2cc
2A	2F	.
.	.	2a
4F	4A	.
=90	=90	=90
2G	2d	2dd
2.A	2.c	4cc
.	.	4a
.	.	4b
4c	4A	4cc
=91	=91	=91
2d	2D	4a
.	.	2a
4c	2A	.
4A	.	4a
2B	2E	4g#
.	.	4f#
=92	=92	=92
1.A	1.e	1.a
=93	=93	=93
1.r	1.r	1.r
=94	=94	=94
2D	2d	2a
2D	2d	2a
[2E	[2c	[2g
=95	=95	=95
4E]	4c]	4g]
4D	4d	4f
1D	1d	1f
=96	=96	=96
*M2/2	*M2/2	*M2/2
2E	2e	2g
2F	2c	2a
=97	=97	=97
2G	1d	1g
2B-	.	.
=98	=98	=98
*M3/2	*M3/2	*M3/2
2A	2c	2f
2.G	2.B	2.e
4F	4A	4d
=99	=99	=99
2E	4e	2g
.	2B	.
4F	.	4f
2G	4c	4d
.	4d	4f
4A	4c	4e
=100	=100	=100
2G	2B	4d
.	.	4e
4F	4A	4d
4D	4F	4d
2E	2G	4c#
.	.	4B
=101	=101	=101
[1.D	[1.A	[1.d
=102	=102	=102
1.D]	1.A]	1.d]
=103	=103	=103
2F	2c	2f
2B-	2d	2g
2A	2e	2a
=104	=104	=104
2c	2e	2a
2.A	2.e	2.a
4A	4e	4a
=105	=105	=105
2A	2e	2a
2r	2r	2r
2r	2r	2r
=106	=106	=106
4c	4e	4a
4d	4f	4b
2e	2.g	2.cc
2c	.	.
.	4e	4a
=107	=107	=107
4d	4f	4b
4e	4g	4cc
2f	2a	2dd
4e	4g	4cc
[4e	[4g	[4cc
=108	=108	=108
4e]	4g]	4cc]
4d	4f	4b-
2c	2.e	2.a
2A	.	.
.	4c	4f
=109	=109	=109
4B-	4d	4g
4d	4f	4b-
2c	4e	4a
.	2d	2g
2B-	.	.
.	4c	4f
=110	=110	=110
2A	2e	2a
2r	2r	2r
2r	2r	2r
=111	=111	=111
2A	2e	2a
2A	2e	2a
2A	2e	2a
=112	=112	=112
2c	2e	2a
2.e	2.g	2.cc
4d	4f	4b-
=113	=113	=113
4c	2.e	2.a
2A	.	.
4c	4e	4a
2B-	4d	4g
.	4c	4f
=114	=114	=114
2A	2e	2a
2r	2r	2r
2r	2r	2r
=115	=115	=115
2A	2e	2a
2c	2e	2a
[2B-	[2d	[2g
=116	=116	=116
4B-]	4d]	4g]
4A	4c	4f
2A	2c	2f
2r	2r	2r
=117	=117	=117
2B	2d	2g
1c	1e	1a
=118	=118	=118
1.G	1.d	1.g
=119	=119	=119
2A	2c	2f
2.G	2.B	2.e
4F	4A	4d
=120	=120	=120
4D	2.A	2.d
2F	.	.
4G	4A	4d
2E	4G#	4c#
.	4F#	4B
=121	=121	=121
[1.D	[1.A	[1.d
=122	=122	=122
1.D]	1.A]	1.d]
=123	=123	=123
1.A	1D	1.f
.	2F	.
=124	=124	=124
1.B	1.G	1.g
=125	=125	=125
1c	2F	1.a
.	2A	.
2A	2F	.
=126	=126	=126
1.d	1.D	2a
.	.	2a
.	.	2a
=127	=127	=127
1c	1A	1.cc
2e	2G	.
=128	=128	=128
2d	2B	1.b
2c	2c	.
2A	2e	.
=129	=129	=129
1.D	1.d	1a
.	.	2a
=130	=130	=130
1.F	2r	1f
.	1A	.
.	.	2d
=131	=131	=131
2A	2c	2f
1G	1B	1g
=132	=132	=132
1.F	1.c	1.a
=133	=133	=133
2G	2d	2dd
1A	2c	2.cc
.	2A	.
.	.	4a
=134	=134	=134
2c	2F	2a
2G	2B-	2b-
2A	2c	4a
.	.	4g
=135	=135	=135
2B-	2d	4g
.	.	4a
2A	2c	2f
2G	2d	2dd
=136	=136	=136
1.A	1.c	1.cc
=137	=137	=137
2c	2A	2a
1d	1B	1b
=138	=138	=138
1c	1e	2.a
.	.	4g
2B-	2d	4g
.	.	4f
=139	=139	=139
1.A	1.e	1.a
=140	=140	=140
1.r	1.r	1.r
=141	=141	=141
2A	2c	1a
1D	1d	.
.	.	2a
=142	=142	=142
2F	2A	1.a
1A	1c	.
=143	=143	=143
1.B-	1.d	1g
.	.	2f
=144	=144	=144
2c	2e	1.g
1B-	1d	.
=145	=145	=145
1.A	1.e	1.a
=146	=146	=146
2E	2c	2g
1E	1c	1g
=147	=147	=147
2r	2r	2r
2r	2r	2r
2D	2d	2f
=148	=148	=148
1G	1B	1e
2F	2A	2d
=149	=149	=149
2E	2B	2g
2A	2c	4f
.	.	4e
2G	[2B	4e
.	.	4d
=150	=150	=150
2E	2B]	2e
2F	2A	4d
.	.	4c#
2E	2G#	4c#
.	.	4B
=151	=151	=151
[1.D	[1.A	[1.d
=152	=152	=152
1.D]	1.A]	1.d]
=153	=153	=153
2F	2c	2f
2B-	2d	2g
2A	2c	2a
=154	=154	=154
2c	2A	2a
1A	1D	1a
=155	=155	=155
2D	4d	2a
.	2A	.
4A	.	2a
2d	4G	.
.	2F	2a
4B-	.	.
=156	=156	=156
2.A	4A	1cc
.	2c	.
2F	4c	.
.	2A	2a
4A	.	.
=157	=157	=157
2c	4r	1a
.	4A	.
4d	2D	.
2d	.	.
.	2E	2g
4e	.	.
=158	=158	=158
4c	2A	1.g
2A	.	.
.	4c	.
4c	2e	.
2B-	.	.
.	4c	.
=159	=159	=159
2A	2e	2a
2r	2r	2r
2r	2r	2r
=160	=160	=160
2D	4d	2a
.	2A	.
2.A	.	2a
.	4F	.
.	2D	2cc
[4F	.	.
=161	=161	=161
4F]	2r	2a
4A	.	.
2D	2A	2a
2F	2d	2a
=162	=162	=162
2A	4d	2a
.	2c	.
2B-	.	2g
.	2d	.
2A	.	2f
.	4c	.
=163	=163	=163
2.G	2c	1g
.	4B	.
2F	4B	.
.	4c	2a
4D	4d	.
=164	=164	=164
2.E	4e	1g
.	2B	.
2G	4B	.
.	2d	2g
4B-	.	.
=165	=165	=165
1A	1c	2f
.	.	1e
2G	2B	.
=166	=166	=166
4F	2A	1d
2D	.	.
.	4F	.
4F	2A	.
2E	.	2c#
.	4G#	.
=167	=167	=167
[1.D	[1.A	[1.d
=168	=168	=168
1.D]	1.A]	1.d]
=169	=169	=169
1.A	1.D	1.f
=170	=170	=170
1.B-	1.G	1.g
=171	=171	=171
1.A	1.F	1.a
=172	=172	=172
1.F	1.A	1.a
=173	=173	=173
2D	2d	2a
1D	1d	1a
=174	=174	=174
1.D	1.d	1.a
=175	=175	=175
2d	2D	4a
.	.	4b
4A	4A	2cc
2A	2c	.
.	.	2a
4F	4c	.
=176	=176	=176
2G	2d	2dd
2.A	2.c	4cc
.	.	4a
.	.	4b
4d	4A	4cc
=177	=177	=177
2d	2B	4a
.	.	2a
4c	4A	.
4A	4c	4a
2B-	2d	4g
.	.	4f
=178	=178	=178
1.A	1.e	1.a
=179	=179	=179
1.r	1.r	1.r
=180	=180	=180
1.A	1.c	1.a
=181	=181	=181
1.c	1.A	1.a
=182	=182	=182
1.A	1.F	1.a
=183	=183	=183
1.F	1.D	1.a
=184	=184	=184
1.D	1.d	1.a
=185	=185	=185
2D	2d	2a
1D	1d	1a
=186	=186	=186
1.D	1d	1.a
.	2B	.
=187	=187	=187
1.E	1.c	1.g
=188	=188	=188
1.D	1.d	1.f
=189	=189	=189
1.E	1.e	1.g
=190	=190	=190
1.F	1.c	1.a
=191	=191	=191
1.G	[1.d	[1.g
=192	=192	=192
1.B-	1.d]	1.g]
=193	=193	=193
2A	2c	2f
2.G	2.B	2.e
4F	4A	4d
=194	=194	=194
2E	4e	2g
.	2B	.
4F	.	4f
2G	4c	4d
.	4d	4f
4A	4c	4e
=195	=195	=195
2G	2B	4d
.	.	4e
4F	4A	4d
4D	4F	4d
2E	2G	4c#
.	.	4B
=196	=196	=196
[1.D	[1.A	[1.d
=197	=197	=197
1.D]	1.A]	1.d]
=198	=198	=198
2F	2c	2f
2B-	2d	2g
2A	2e	2a
=199	=199	=199
2c	2e	2a
2.A	2.e	2.a
4A	4e	4a
=200	=200	=200
2A	2e	2a
2r	2r	2r
2A	2e	2a
=201	=201	=201
4c	2e	2a
4d	.	.
2e	2.g	2.cc
2c	.	.
.	4e	4a
=202	=202	=202
4d	4f	4b
4e	4g	4cc
2f	2a	2dd
4e	4g	4cc
[4e	[4g	[4cc
=203	=203	=203
4e]	4g]	4cc]
4d	4f	4b-
2c	2.e	2.a
2A	.	.
.	4c	4f
=204	=204	=204
4B-	4d	4g
4d	4f	4b-
2c	4e	4a
.	2d	2g
2B-	.	.
.	4c	4f
=205	=205	=205
2A	2e	2a
2r	2r	2r
2A	2e	2a
=206	=206	=206
2c	2e	2a
2.e	2.g	2.cc
4d	4f	4b-
=207	=207	=207
4c	2.e	2.a
2A	.	.
4c	4e	4a
2B-	4d	4g
.	4c	4f
=208	=208	=208
2A	2e	2a
2r	2r	2r
2r	2r	2r
=209	=209	=209
2A	2e	2a
4A	4e	4a
4A	4e	4a
2A	2e	2a
=210	=210	=210
2c	2e	2a
2B-	2d	2g
2A	2c	2f
=211	=211	=211
2B	2d	2g
1c	1e	1a
=212	=212	=212
2G	2d	2g
1G	1d	1g
=213	=213	=213
2A	2c	2f
2.G	2.B	2.e
4F	4A	4d
=214	=214	=214
4D	1A	1d
2F	.	.
4G	.	.
2E	2G#	2c#
=215	=215	=215
[1.D	[1.A	[1.d
=216	=216	=216
1.D]	1.A]	1.d]
=217	=217	=217
1.A	1D	1.f
.	2F	.
=218	=218	=218
1.B	1.G	1.g
=219	=219	=219
1c	2F	1.a
.	2A	.
2A	2F	.
=220	=220	=220
1.d	1.D	1a
.	.	2a
=221	=221	=221
1c	1A	1.cc
2e	2r	.
=222	=222	=222
2d	2B	1.b
2c	2c	.
2A	2e	.
=223	=223	=223
1.D	1.d	1a
.	.	2a
=224	=224	=224
1.F	2r	1f
.	1A	.
.	.	2d
=225	=225	=225
2A	2c	2f
1G	1B	1g
=226	=226	=226
1.F	1.c	1.a
=227	=227	=227
2G	2d	2dd
1A	2c	2.cc
.	2A	.
.	.	4b-
=228	=228	=228
2c	2F	2a
2G	2B-	2b-
2A	2c	4a
.	.	4g
=229	=229	=229
2B-	2d	4g
.	.	4a
2A	2c	2f
2G	2d	2dd
=230	=230	=230
1.A	1.c	1.cc
=231	=231	=231
2c	2A	2a
1d	1B-	1b-
=232	=232	=232
1c	1e-	2.a
.	.	4g
2B-	2d	4g
.	.	4f
=233	=233	=233
1.A	1.e	1.a
=234	=234	=234
1.r	1.r	1.r
=235	=235	=235
2A	2c	1a
1D	1d	.
.	.	2a
=236	=236	=236
2F	2A	1.a
1A	1c	.
=237	=237	=237
1.B-	1.d	1g
.	.	2f
=238	=238	=238
2c	2e	1.g
1B-	1d	.
=239	=239	=239
1.A	1.e	1.a
=240	=240	=240
[1.E	[1.c	[1.g
=241	=241	=241
1E]	1c]	1g]
2D	2d	2f
=242	=242	=242
1G	1B	1e
2F	2A	2d
=243	=243	=243
2E	2B	2g
2A	2c	4f
.	.	4e
2G	[2B	4e
.	.	4d
=244	=244	=244
2E	2B]	2e
2F	2A	4d
.	.	4c#
2E	2G#	4c#
.	.	4B
=245	=245	=245
[1.D	[1.A	[1.d
=246	=246	=246
1.D]	1.A]	1.d]
==	==	==
*-	*-	*-
